Numix-Circle/48x48/apps/vncserver.svg

<?xml version="1.0" encoding="UTF-8" standalone="no"?>
<svg
   xmlns:dc="http://purl.org/dc/elements/1.1/"
   xmlns:cc="http://creativecommons.org/ns#"
   xmlns:rdf="http://www.w3.org/1999/02/22-rdf-syntax-ns#"
   xmlns:svg="http://www.w3.org/2000/svg"
   xmlns="http://www.w3.org/2000/svg"
   xmlns:sodipodi="http://sodipodi.sourceforge.net/DTD/sodipodi-0.dtd"
   xmlns:inkscape="http://www.inkscape.org/namespaces/inkscape"
   viewBox="0 0 48 48"
   id="svg2"
   version="1.1"
   inkscape:version="0.91 r"
   sodipodi:docname="vncserver.svg">
  <metadata
     id="metadata61">
    <rdf:RDF>
      <cc:Work
         rdf:about="">
        <dc:format>image/svg+xml</dc:format>
        <dc:type
           rdf:resource="http://purl.org/dc/dcmitype/StillImage" />
        <dc:title />
      </cc:Work>
    </rdf:RDF>
  </metadata>
  <sodipodi:namedview
     pagecolor="#ffffff"
     bordercolor="#666666"
     borderopacity="1"
     objecttolerance="10"
     gridtolerance="10"
     guidetolerance="10"
     inkscape:pageopacity="0"
     inkscape:pageshadow="2"
     inkscape:window-width="1366"
     inkscape:window-height="747"
     id="namedview59"
     showgrid="true"
     inkscape:zoom="9.8333334"
     inkscape:cx="17.440678"
     inkscape:cy="23.917208"
     inkscape:window-x="0"
     inkscape:window-y="21"
     inkscape:window-maximized="1"
     inkscape:current-layer="svg2">
    <inkscape:grid
       type="xygrid"
       id="grid4157" />
  </sodipodi:namedview>
  <defs
     id="defs4">
    <linearGradient
       id="linearGradient3764"
       x1="1"
       x2="47"
       gradientUnits="userSpaceOnUse"
       gradientTransform="matrix(0,-1,1,0,-1.5e-6,47.999998)">
      <stop
         stop-color="#e4e4e4"
         stop-opacity="1"
         id="stop7" />
      <stop
         offset="1"
         stop-color="#eee"
         stop-opacity="1"
         id="stop9" />
    </linearGradient>
    <clipPath
       id="clipPath-521565884">
      <g
         transform="translate(0,-1004.3622)"
         id="g12">
        <path
           d="m -24 13 c 0 1.105 -0.672 2 -1.5 2 -0.828 0 -1.5 -0.895 -1.5 -2 0 -1.105 0.672 -2 1.5 -2 0.828 0 1.5 0.895 1.5 2 z"
           transform="matrix(15.333333,0,0,11.5,414.99999,878.8622)"
           fill="#1890d0"
           id="path14" />
      </g>
    </clipPath>
    <clipPath
       id="clipPath-532422548">
      <g
         transform="translate(0,-1004.3622)"
         id="g17">
        <path
           d="m -24 13 c 0 1.105 -0.672 2 -1.5 2 -0.828 0 -1.5 -0.895 -1.5 -2 0 -1.105 0.672 -2 1.5 -2 0.828 0 1.5 0.895 1.5 2 z"
           transform="matrix(15.333333,0,0,11.5,414.99999,878.8622)"
           fill="#1890d0"
           id="path19" />
      </g>
    </clipPath>
  </defs>
  <g
     id="g21">
    <path
       d="m 36.31 5 c 5.859 4.062 9.688 10.831 9.688 18.5 c 0 12.426 -10.07 22.5 -22.5 22.5 c -7.669 0 -14.438 -3.828 -18.5 -9.688 c 1.037 1.822 2.306 3.499 3.781 4.969 c 4.085 3.712 9.514 5.969 15.469 5.969 c 12.703 0 23 -10.298 23 -23 c 0 -5.954 -2.256 -11.384 -5.969 -15.469 c -1.469 -1.475 -3.147 -2.744 -4.969 -3.781 z m 4.969 3.781 c 3.854 4.113 6.219 9.637 6.219 15.719 c 0 12.703 -10.297 23 -23 23 c -6.081 0 -11.606 -2.364 -15.719 -6.219 c 4.16 4.144 9.883 6.719 16.219 6.719 c 12.703 0 23 -10.298 23 -23 c 0 -6.335 -2.575 -12.06 -6.719 -16.219 z"
       opacity="0.05"
       id="path23" />
    <path
       d="m 41.28 8.781 c 3.712 4.085 5.969 9.514 5.969 15.469 c 0 12.703 -10.297 23 -23 23 c -5.954 0 -11.384 -2.256 -15.469 -5.969 c 4.113 3.854 9.637 6.219 15.719 6.219 c 12.703 0 23 -10.298 23 -23 c 0 -6.081 -2.364 -11.606 -6.219 -15.719 z"
       opacity="0.1"
       id="path25" />
    <path
       d="m 31.25 2.375 c 8.615 3.154 14.75 11.417 14.75 21.13 c 0 12.426 -10.07 22.5 -22.5 22.5 c -9.708 0 -17.971 -6.135 -21.12 -14.75 a 23 23 0 0 0 44.875 -7 a 23 23 0 0 0 -16 -21.875 z"
       opacity="0.2"
       id="path27" />
  </g>
  <g
     id="g29">
    <path
       d="m 24 1 c 12.703 0 23 10.297 23 23 c 0 12.703 -10.297 23 -23 23 -12.703 0 -23 -10.297 -23 -23 0 -12.703 10.297 -23 23 -23 z"
       fill="url(#linearGradient3764)"
       fill-opacity="1"
       id="path31" />
  </g>
  <g
     id="g33" />
  <g
     id="g55">
    <path
       d="m 40.03 7.531 c 3.712 4.084 5.969 9.514 5.969 15.469 0 12.703 -10.297 23 -23 23 c -5.954 0 -11.384 -2.256 -15.469 -5.969 4.178 4.291 10.01 6.969 16.469 6.969 c 12.703 0 23 -10.298 23 -23 0 -6.462 -2.677 -12.291 -6.969 -16.469 z"
       opacity="0.1"
       id="path57" />
  </g>
  <path
     id="path43266-7"
     style="opacity:0.12000002;fill:#000000;fill-opacity:1;fill-rule:evenodd;stroke:none"
     d="m 10,15 3.737918,0 5.116648,15.679466 L 23.890387,15 27.6687,15 20.648484,35.638426 c -0.282641,0.8443 -0.917085,1.355711 -1.78237,1.361498 -0.871063,0.0073 -1.522907,-0.511207 -1.811343,-1.361498 L 10,15"
     inkscape:connector-curvature="0" />
  <path
     id="path43268-1"
     style="opacity:0.12000002;fill:#000000;fill-opacity:1;fill-rule:evenodd;stroke:none"
     d="m 28,25 0,-5.614065 C 28,16.923002 30.452929,14.966319 33.065609,15.00044 35.644013,15.04032 38,16.951419 38,19.385935 L 38,25 l -2.441524,0 0,-5.250087 c 0,-1.285492 -1.18086,-2.218296 -2.492867,-2.235372 -1.32912,-0.02283 -2.572734,0.921466 -2.572734,2.235372 L 30.492875,25 28,25"
     inkscape:connector-curvature="0" />
  <path
     id="path43270-8"
     style="opacity:0.12000002;fill:#000000;fill-opacity:1;fill-rule:evenodd;stroke:none"
     d="m 38,37 -5.617193,0 C 29.924217,37 27.960776,34.547159 28.000595,31.928653 28.034855,29.356025 29.952746,27 32.382807,27 L 38,27 l 0,2.435904 -5.252891,0 c -1.286262,0 -2.21391,1.18652 -2.236671,2.492749 -0.02293,1.334986 0.921929,2.578594 2.236671,2.578594 L 38,34.507247 38,37"
     inkscape:connector-curvature="0" />
  <path
     id="path43266"
     style="fill:#49d74a;fill-opacity:1;fill-rule:evenodd;stroke:none"
     d="m 9,14 3.737918,0 5.116648,15.679466 L 22.890387,14 26.6687,14 19.648484,34.638426 c -0.282641,0.8443 -0.917085,1.355711 -1.78237,1.361498 -0.871063,0.0073 -1.522907,-0.511207 -1.811343,-1.361498 L 9,14"
     inkscape:connector-curvature="0" />
  <path
     id="path43268"
     style="fill:#4747d8;fill-opacity:1;fill-rule:evenodd;stroke:none"
     d="m 27,24 0,-5.614065 C 27,15.923002 29.452929,13.966319 32.065609,14.00044 34.644013,14.04032 37,15.951419 37,18.385935 L 37,24 l -2.441524,0 0,-5.250087 c 0,-1.285492 -1.18086,-2.218296 -2.492867,-2.235372 -1.32912,-0.02283 -2.572734,0.921466 -2.572734,2.235372 L 29.492875,24 27,24"
     inkscape:connector-curvature="0" />
  <path
     id="path43270"
     style="fill:#f13e3e;fill-opacity:1;fill-rule:evenodd;stroke:none"
     d="m 37,36 -5.617193,0 C 28.924217,36 26.960776,33.547159 27.000595,30.928653 27.03485,28.356025 28.952746,26 31.382807,26 L 37,26 l 0,2.435904 -5.252891,0 c -1.286262,0 -2.21391,1.18652 -2.236671,2.492749 -0.02293,1.334986 0.921929,2.578594 2.236671,2.578594 L 37,33.507247 37,36"
     inkscape:connector-curvature="0" />
</svg>

<svg xmlns="http://www.w3.org/2000/svg" viewBox="0 0 48 48">
 <defs>
  <linearGradient id="linearGradient3764" x1="1" x2="47" gradientUnits="userSpaceOnUse" gradientTransform="matrix(0,-1,1,0,-1.5e-6,47.999998)">
   <stop style="stop-color:#e4e4e4;stop-opacity:1"/>
   <stop offset="1" style="stop-color:#eee;stop-opacity:1"/>
  </linearGradient>
 </defs>
 <g>
  <path d="m 36.31 5 c 5.859 4.062 9.688 10.831 9.688 18.5 c 0 12.426 -10.07 22.5 -22.5 22.5 c -7.669 0 -14.438 -3.828 -18.5 -9.688 c 1.037 1.822 2.306 3.499 3.781 4.969 c 4.085 3.712 9.514 5.969 15.469 5.969 c 12.703 0 23 -10.298 23 -23 c 0 -5.954 -2.256 -11.384 -5.969 -15.469 c -1.469 -1.475 -3.147 -2.744 -4.969 -3.781 z m 4.969 3.781 c 3.854 4.113 6.219 9.637 6.219 15.719 c 0 12.703 -10.297 23 -23 23 c -6.081 0 -11.606 -2.364 -15.719 -6.219 c 4.16 4.144 9.883 6.719 16.219 6.719 c 12.703 0 23 -10.298 23 -23 c 0 -6.335 -2.575 -12.06 -6.719 -16.219 z" style="opacity:0.05"/>
  <path d="m 41.28 8.781 c 3.712 4.085 5.969 9.514 5.969 15.469 c 0 12.703 -10.297 23 -23 23 c -5.954 0 -11.384 -2.256 -15.469 -5.969 c 4.113 3.854 9.637 6.219 15.719 6.219 c 12.703 0 23 -10.298 23 -23 c 0 -6.081 -2.364 -11.606 -6.219 -15.719 z" style="opacity:0.1"/>
  <path d="m 31.25 2.375 c 8.615 3.154 14.75 11.417 14.75 21.13 c 0 12.426 -10.07 22.5 -22.5 22.5 c -9.708 0 -17.971 -6.135 -21.12 -14.75 a 23 23 0 0 0 44.875 -7 a 23 23 0 0 0 -16 -21.875 z" style="opacity:0.2"/>
 </g>
 <g>
  <path d="m 24 1 c 12.703 0 23 10.297 23 23 c 0 12.703 -10.297 23 -23 23 -12.703 0 -23 -10.297 -23 -23 0 -12.703 10.297 -23 23 -23 z" style="fill:url(#linearGradient3764);fill-opacity:1"/>
 </g>
 <g>
  <path d="m 40.03 7.531 c 3.712 4.084 5.969 9.514 5.969 15.469 0 12.703 -10.297 23 -23 23 c -5.954 0 -11.384 -2.256 -15.469 -5.969 4.178 4.291 10.01 6.969 16.469 6.969 c 12.703 0 23 -10.298 23 -23 0 -6.462 -2.677 -12.291 -6.969 -16.469 z" style="opacity:0.1"/>
 </g>
 <path d="m 10 15 3.738 0 5.117 15.679 l 5.04 -15.679 3.778 0 -7.02 20.638 c -0.283 0.844 -0.917 1.356 -1.782 1.361 -0.871 0.007 -1.523 -0.511 -1.811 -1.361 l -7.05 -20.638" style="fill:#000;opacity:0.12;fill-opacity:1;stroke:none;fill-rule:evenodd"/>
 <path d="m 28 25 0 -5.614 c 0 -2.463 2.453 -4.42 5.066 -4.385 2.578 0.04 4.934 1.951 4.934 4.385 l 0 5.614 l -2.442 0 0 -5.25 c 0 -1.285 -1.181 -2.218 -2.493 -2.235 -1.329 -0.023 -2.573 0.921 -2.573 2.235 l 0 5.25 -2.493 0" style="fill:#000;opacity:0.12;fill-opacity:1;stroke:none;fill-rule:evenodd"/>
 <path d="m 38 37 -5.617 0 c -2.459 0 -4.422 -2.453 -4.382 -5.071 0.034 -2.573 1.952 -4.929 4.382 -4.929 l 5.617 0 l 0 2.436 -5.253 0 c -1.286 0 -2.214 1.187 -2.237 2.493 -0.023 1.335 0.922 2.579 2.237 2.579 l 5.253 0 0 2.493" style="fill:#000;opacity:0.12;fill-opacity:1;stroke:none;fill-rule:evenodd"/>
 <path d="m 9 14 3.738 0 5.117 15.679 l 5.04 -15.679 3.778 0 -7.02 20.638 c -0.283 0.844 -0.917 1.356 -1.782 1.361 -0.871 0.007 -1.523 -0.511 -1.811 -1.361 l -7.05 -20.638" style="fill:#49d74a;fill-opacity:1;stroke:none;fill-rule:evenodd"/>
 <path d="m 27 24 0 -5.614 c 0 -2.463 2.453 -4.42 5.066 -4.385 2.578 0.04 4.934 1.951 4.934 4.385 l 0 5.614 l -2.442 0 0 -5.25 c 0 -1.285 -1.181 -2.218 -2.493 -2.235 -1.329 -0.023 -2.573 0.921 -2.573 2.235 l 0 5.25 -2.493 0" style="fill:#4747d8;fill-opacity:1;stroke:none;fill-rule:evenodd"/>
 <path d="m 37 36 -5.617 0 c -2.459 0 -4.422 -2.453 -4.382 -5.071 0.034 -2.573 1.952 -4.929 4.382 -4.929 l 5.617 0 l 0 2.436 -5.253 0 c -1.286 0 -2.214 1.187 -2.237 2.493 -0.023 1.335 0.922 2.579 2.237 2.579 l 5.253 0 0 2.493" style="fill:#f13e3e;fill-opacity:1;stroke:none;fill-rule:evenodd"/>
</svg>
